src/icons/svgs/16/house.svg

<svg width="16" height="16" viewBox="0 0 16 16" fill="none" xmlns="http://www.w3.org/2000/svg">
<path d="M14.9968 7.99996C14.9968 8.48121 14.6495 8.85036 14.2178 8.85036L13.4392 8.87496L13.4393 14.125C13.4393 14.6082 13.0905 15 12.6824 15H10.3461C9.91609 15 9.58923 14.6082 9.58923 14.1496V11.5246C9.58923 11.0414 9.24047 10.6496 8.81041 10.6496H7.23055C6.8005 10.6496 6.47364 11.0414 6.45174 11.5V14.125C6.45174 14.6082 6.10297 15 5.67292 15H3.33694C2.90689 15 2.55813 14.6082 2.55813 14.125V8.87496H1.77882C1.34609 8.87496 1 8.48121 1 7.99996C1 7.72925 1.09351 7.5105 1.26577 7.34097L7.47442 1.24054C7.66621 1.04979 7.86091 1 8.00937 1C8.19247 1 8.37566 1.07211 8.52242 1.21654L14.7311 7.31696C14.9263 7.5105 15.0187 7.72925 14.9968 7.99996Z" fill="black"/>
</svg>

<svg width="16" height="16" viewBox="0 0 16 16" xmlns="http://www.w3.org/2000/svg">
    <path d="M14.997 8c0 .481-.348.85-.78.85l-.778.025v5.25c0 .483-.348.875-.757.875h-2.336c-.43 0-.757-.392-.757-.85v-2.625c0-.484-.349-.875-.779-.875H7.23c-.43 0-.756.391-.778.85v2.625c0 .483-.349.875-.78.875H3.338c-.43 0-.779-.392-.779-.875v-5.25h-.78C1.347 8.875 1 8.481 1 8c0-.27.094-.49.266-.659l6.208-6.1A.748.748 0 0 1 8.01 1a.73.73 0 0 1 .513.217l6.21 6.1a.82.82 0 0 1 .265.683Z"/>
</svg>
